build/service/EyeSolid.svg

<svg xmlns="http://www.w3.org/2000/svg" fill="none" viewBox="0 0 24 24" focusable="false"><path d="M0 0H24V24H0z"/><path fill="#74767B" fill-rule="evenodd" d="M11.9998 5C7.27521 5 4.1356 8.69823 2.77296 10.7185C2.24495 11.5014 2.24495 12.4986 2.77296 13.2815C4.1356 15.3018 7.27521 19 11.9998 19C16.7243 19 19.8639 15.3018 21.2266 13.2815C21.7546 12.4986 21.7546 11.5014 21.2266 10.7185C19.8639 8.69823 16.7243 5 11.9998 5ZM11.9998 7.34998C9.43165 7.34998 7.34977 9.43185 7.34977 12C7.34977 14.5681 9.43165 16.65 11.9998 16.65C14.5679 16.65 16.6498 14.5681 16.6498 12C16.6498 9.43185 14.5679 7.34998 11.9998 7.34998ZM11.9998 9.7C11.9998 9.3134 11.682 8.99158 11.3058 9.08066C9.98355 9.39379 8.99976 10.582 8.99976 12C8.99976 13.6569 10.3429 15 11.9998 15C13.4178 15 14.606 14.0162 14.9191 12.6939C15.0082 12.3178 14.6864 12 14.2998 12L13.2998 12C12.5818 12 11.9998 11.418 11.9998 10.7L11.9998 9.7Z"/></svg>

<svg xmlns="http://www.w3.org/2000/svg" fill="none" viewBox="0 0 24 24" focusable="false"><path fill="#74767B" fill-rule="evenodd" d="M12 5c-4.73 0-7.87 3.69-9.23 5.71-.53.79-.53 1.78 0 2.57C4.13 15.3 7.27 19 12 19c4.72 0 7.86-3.7 9.22-5.72.53-.79.53-1.78 0-2.57C19.86 8.69 16.72 5 12 5m0 2.34c-2.57 0-4.66 2.09-4.66 4.66 0 2.56 2.09 4.65 4.66 4.65 2.56 0 4.64-2.09 4.64-4.65 0-2.57-2.08-4.66-4.64-4.66m-.7 1.74c.38-.09.7.23.7.62v1c0 .71.58 1.3 1.29 1.3h1c.39 0 .71.31.62.69A3 3 0 0 1 12 15a3.002 3.002 0 0 1-.7-5.92"/></svg>
